school977/img/logo-small.svg

<svg width="65" height="41" viewBox="0 0 65 41" fill="none" xmlns="http://www.w3.org/2000/svg">
<path fill-rule="evenodd" clip-rule="evenodd" d="M12.476 13.4114L0 9.80327L9.36407 0.8078L12.476 13.4114Z" fill="#F39200"/>
<path fill-rule="evenodd" clip-rule="evenodd" d="M15.5805 26.0079L3.07617 22.414L12.4757 13.4114L15.5805 26.0079Z" fill="#FDD400"/>
<path fill-rule="evenodd" clip-rule="evenodd" d="M24.9648 16.9769L12.4746 13.4114L21.8245 4.38043L24.9648 16.9769Z" fill="#E94591"/>
<path fill-rule="evenodd" clip-rule="evenodd" d="M12.4746 13.4114L24.9506 16.977L15.5794 26.0079L12.4746 13.4114Z" fill="#C52D88"/>
<path fill-rule="evenodd" clip-rule="evenodd" d="M0.00585938 9.79614L12.4748 13.4114L3.07524 22.4139L0.00585938 9.79614Z" fill="#3AAA35"/>
<path fill-rule="evenodd" clip-rule="evenodd" d="M12.4752 13.4114L9.36328 0.8078L21.8251 4.38045L12.4752 13.4114Z" fill="#FFED00"/>
<path fill-rule="evenodd" clip-rule="evenodd" d="M12.476 13.4114L0 9.80327L9.36407 0.8078L12.476 13.4114Z" fill="#F39200"/>
<path fill-rule="evenodd" clip-rule="evenodd" d="M15.5805 26.0079L3.07617 22.414L12.4757 13.4114L15.5805 26.0079Z" fill="#787FBD"/>
<path fill-rule="evenodd" clip-rule="evenodd" d="M24.9648 16.9769L12.4746 13.4114L21.8245 4.38043L24.9648 16.9769Z" fill="#E94792"/>
<path fill-rule="evenodd" clip-rule="evenodd" d="M12.4746 13.4114L24.9506 16.977L15.5794 26.0079L12.4746 13.4114Z" fill="#64B6E7"/>
<path fill-rule="evenodd" clip-rule="evenodd" d="M0.00585938 9.79614L12.4748 13.4114L3.07524 22.4139L0.00585938 9.79614Z" fill="#93C461"/>
<path fill-rule="evenodd" clip-rule="evenodd" d="M12.4752 13.4114L9.36328 0.8078L21.8251 4.38045L12.4752 13.4114Z" fill="#FFED00"/>
<path d="M16.183 40.0788H2.69336V28.9142H4.4159V38.4484H8.57692V28.9142H10.2995V38.4484H14.4605V28.9142H16.183V40.0788Z" fill="#0067B1"/>
<path d="M26.8647 40.0788L24.568 36.5203C24.2419 36.0099 23.9655 35.6697 23.7457 35.4996C23.526 35.3294 23.1928 35.2444 22.7321 35.2444H21.3143V40.0788H19.5918V28.9142H21.3143V33.5856H22.6045C23.051 33.5856 23.3842 33.5006 23.611 33.3304C23.8379 33.1603 24.1143 32.8201 24.4546 32.3097L26.6237 28.9142H28.5873L26.0495 32.8555C25.4754 33.6707 25.0075 34.1811 24.646 34.3725C24.887 34.4575 25.1209 34.6135 25.3407 34.8403C25.5604 35.0672 25.8298 35.4428 26.1629 35.9674L28.8141 40.0788H26.8647Z" fill="#0067B1"/>
<path d="M31.6998 30.4737C32.8056 29.3608 34.1453 28.8079 35.719 28.8079C37.2927 28.8079 38.6324 29.3608 39.7454 30.4737C40.8583 31.5866 41.4112 32.9264 41.4112 34.5001C41.4112 36.0737 40.8583 37.4135 39.7454 38.5264C38.6324 39.6393 37.2927 40.1922 35.719 40.1922C34.1453 40.1922 32.8056 39.6393 31.6998 38.5264C30.5939 37.4135 30.041 36.0737 30.041 34.5001C30.041 32.9264 30.5939 31.5795 31.6998 30.4737ZM38.5403 31.5866C37.7747 30.8139 36.8319 30.4311 35.719 30.4311C34.6061 30.4311 33.6633 30.8139 32.9048 31.5866C32.1463 32.3593 31.7636 33.3304 31.7636 34.5001C31.7636 35.6839 32.1463 36.655 32.9048 37.4206C33.6633 38.1861 34.6061 38.5689 35.719 38.5689C36.839 38.5689 37.7747 38.1861 38.5403 37.4206C39.3059 36.655 39.6886 35.6839 39.6886 34.5001C39.6886 33.3304 39.3059 32.3593 38.5403 31.5866Z" fill="#0067B1"/>
<path d="M47.4725 32.0899L44.2826 40.0788H42.3828L46.9904 28.9142H47.997L52.555 40.0788H50.6552L47.4725 32.0899Z" fill="#0067B1"/>
<path d="M56.899 37.5765L55.8783 40.0788H53.9785L58.5861 28.9142H59.5927L64.1507 40.0788H62.2509L61.2444 37.5765H56.899ZM59.0823 32.0545L57.5016 35.9462H60.656L59.0823 32.0545Z" fill="#0067B1"/>
<path d="M34.6001 7.98151C31.1337 7.98151 28.752 10.2782 28.752 13.539C28.752 16.5942 30.8644 18.8271 33.9904 19.0681L30.5737 24.0373H34.7135L39.5267 16.7289C40.1079 15.8499 40.4482 14.7512 40.4482 13.539C40.4482 10.2712 38.0877 7.98151 34.6001 7.98151ZM34.6001 15.7152C33.4092 15.7152 32.353 14.9071 32.353 13.5319C32.353 12.1567 33.4092 11.3486 34.6001 11.3486C35.8122 11.3486 36.8472 12.1355 36.8472 13.5319C36.8472 14.9284 35.8122 15.7152 34.6001 15.7152Z" fill="#0067B1"/>
<path d="M41.9727 11.7598H48.3099L46.9134 15.2191H45.4886L44.0922 18.6854H45.5241L43.3691 24.0373H47.1899L49.3448 18.6854H50.9185L52.315 15.2191H50.7413L52.315 11.3061V8.29346H41.9727V11.7598Z" fill="#0067B1"/>
<path d="M64.4087 8.29346H54.0664V11.7598H60.4107L59.0143 15.2191H57.5824L56.1859 18.6854H57.6178L55.4629 24.0373H59.2836L61.4386 18.6854H63.0193L64.4087 15.2191H62.835L64.4087 11.3061V8.29346Z" fill="#0067B1"/>
</svg>

<svg width="65" height="41" fill="none" xmlns="http://www.w3.org/2000/svg"><path fill-rule="evenodd" clip-rule="evenodd" d="M12.476 13.411L0 9.803 9.364.808l3.112 12.603z" fill="#F39200"/><path fill-rule="evenodd" clip-rule="evenodd" d="M15.58 26.008L3.077 22.414l9.4-9.003 3.104 12.597z" fill="#FDD400"/><path fill-rule="evenodd" clip-rule="evenodd" d="M24.965 16.977l-12.49-3.566 9.35-9.03 3.14 12.596z" fill="#E94591"/><path fill-rule="evenodd" clip-rule="evenodd" d="M12.475 13.411l12.476 3.566-9.372 9.03-3.104-12.596z" fill="#C52D88"/><path fill-rule="evenodd" clip-rule="evenodd" d="M.006 9.796l12.469 3.615-9.4 9.003L.005 9.796z" fill="#3AAA35"/><path fill-rule="evenodd" clip-rule="evenodd" d="M12.475 13.411L9.363.808 21.825 4.38l-9.35 9.031z" fill="#FFED00"/><path fill-rule="evenodd" clip-rule="evenodd" d="M12.476 13.411L0 9.803 9.364.808l3.112 12.603z" fill="#F39200"/><path fill-rule="evenodd" clip-rule="evenodd" d="M15.58 26.008L3.077 22.414l9.4-9.003 3.104 12.597z" fill="#787FBD"/><path fill-rule="evenodd" clip-rule="evenodd" d="M24.965 16.977l-12.49-3.566 9.35-9.03 3.14 12.596z" fill="#E94792"/><path fill-rule="evenodd" clip-rule="evenodd" d="M12.475 13.411l12.476 3.566-9.372 9.03-3.104-12.596z" fill="#64B6E7"/><path fill-rule="evenodd" clip-rule="evenodd" d="M.006 9.796l12.469 3.615-9.4 9.003L.005 9.796z" fill="#93C461"/><path fill-rule="evenodd" clip-rule="evenodd" d="M12.475 13.411L9.363.808 21.825 4.38l-9.35 9.031z" fill="#FFED00"/><path d="M16.183 40.079H2.693V28.914h1.723v9.534h4.16v-9.534H10.3v9.534h4.162v-9.534h1.722V40.08zM26.865 40.079l-2.297-3.559c-.326-.51-.603-.85-.822-1.02-.22-.17-.553-.256-1.014-.256h-1.418v4.835h-1.722V28.914h1.722v4.672h1.29c.447 0 .78-.085 1.007-.256.227-.17.503-.51.844-1.02l2.169-3.396h1.963l-2.538 3.941c-.574.816-1.041 1.326-1.403 1.518.241.085.475.24.695.467.22.227.489.603.822 1.127l2.651 4.112h-1.95zM31.7 30.474c1.106-1.113 2.445-1.666 4.019-1.666 1.574 0 2.913.553 4.026 1.666s1.666 2.452 1.666 4.026c0 1.574-.553 2.913-1.666 4.026s-2.452 1.666-4.026 1.666c-1.574 0-2.913-.553-4.02-1.666-1.105-1.113-1.658-2.452-1.658-4.026 0-1.574.553-2.92 1.659-4.026zm6.84 1.113c-.765-.773-1.708-1.156-2.821-1.156-1.113 0-2.056.383-2.814 1.156-.759.772-1.141 1.743-1.141 2.913 0 1.184.382 2.155 1.14 2.92.76.766 1.702 1.149 2.815 1.149 1.12 0 2.056-.383 2.821-1.148.766-.766 1.149-1.737 1.149-2.92 0-1.17-.383-2.142-1.149-2.914zM47.472 32.09l-3.19 7.989h-1.9l4.608-11.165h1.007l4.558 11.165h-1.9l-3.183-7.99zM56.899 37.577l-1.02 2.502h-1.9l4.607-11.165h1.007L64.15 40.08h-1.9l-1.007-2.502H56.9zm2.183-5.523l-1.58 3.892h3.154l-1.574-3.892zM34.6 7.982c-3.466 0-5.848 2.296-5.848 5.557 0 3.055 2.112 5.288 5.238 5.53l-3.416 4.968h4.14l4.813-7.308c.58-.88.921-1.978.921-3.19 0-3.268-2.36-5.557-5.848-5.557zm0 7.733c-1.19 0-2.247-.808-2.247-2.183 0-1.375 1.056-2.183 2.247-2.183 1.212 0 2.247.787 2.247 2.183s-1.035 2.183-2.247 2.183zM41.973 11.76h6.337l-1.397 3.46H45.49l-1.397 3.465h1.432l-2.155 5.352h3.82l2.156-5.352h1.574l1.396-3.466h-1.574l1.574-3.913V8.293H41.973v3.467zM64.409 8.293H54.066v3.467h6.345l-1.397 3.46h-1.432l-1.396 3.465h1.432l-2.155 5.352h3.82l2.156-5.352h1.58l1.39-3.466h-1.574l1.574-3.913V8.293z" fill="#0067B1"/></svg>
